X:1
T:MicMac Square Dance
N:Traditional, Collected by Minnie White
D:The Hills of Home:Minnie White
Z:robin.beech@mcgill.ca
R:polka
M:4/4
L:1/8
K:Em
|: E2FA BeBe/B/ | AFDF EFDF | E2FA BeBe/B/ | AFDF E2 E2 ::
e2 B/c/d edBe/B/ | AFDF EFDF | e2 B/c/d edBe/B/ | AFDF E2E2 ::
E2FA BeBe/B/ | AFDF EFDF | E2FA BeBe/B/ | AFDF E2 E2 ::
e2 B/c/d edBe/B/ | AFDF EFDF | e2 B/c/d edBe/B/ | AFDF E2E2 ::
GEGA BA FF/G/ | AFDF AFE2 | GEGA BA FF/G/| AFDF E2E2 ::
Eeed BAFA | Eeed efd2 | Eeed BAFA | B/c/dAd FAE2 ::
GEGA BA FF/G/ | AFDF AFE2 | GEGA BA FF/G/| AFDF E2E2 ::
Eeed BAFA | Eeed efd2 | Eeed BAFA | B/c/dAd FAE2 :|
